X: 4
T: Lady of the Lake
I: Lady of the Lake	R-83	G	reel
%%staffsep	46pt
M: C|
R: reel
K: G
"G"G,B,DG B2Bc| dBGA B2AB| "C"c2cB AGFG| "D"AGFE DCB,A,|
"G"G,B,DG B2Bc| dBGA B2AB| "C"c2cB AGFE|1 "D"DGGF "G"G4 :|2 "D"DGGF "G"G2|
|:Bc| "G"dcBd g2gd| "C"edce a2ae| "D"f2fg fedf| "A"ed^ce "D"d2Bc|
    "G"dcBd g2gd| "C"edce a2ae| "D"fgfe dcBA| "G"G2B2 G2 :|
%%text Roaring Jelly  R-83

%%vskip 10pt

